X: 30404
T: Old Stage, The
R: slide
M: 12/8
K: Dmajor
f2e|:d2B BdB ABA AFA|B2B BAB g3 f2e|
d2B BdB ABA AFA|1 Bcd e>dc d2e f2e:|2 Bcd e>dc d3 d2A||
|:d2e f2g afa afe|d2e f2g a3 A3|
b3 aba gag f2e|d2B BAB g3 f2e:|

